Yaru++/places/48/network-workgroup.svg

<svg height="48" viewBox="0 0 12.699375 12.699375" width="48" xmlns="http://www.w3.org/2000/svg" xmlns:xlink="http://www.w3.org/1999/xlink"><linearGradient id="a" gradientTransform="matrix(.06326681 0 0 .06326678 .276074 .143788)" gradientUnits="userSpaceOnUse" x1="96" x2="96" y1="4.000006" y2="188"><stop offset="0" stop-color="#fff"/><stop offset=".125" stop-color="#fff" stop-opacity=".098039"/><stop offset=".92500001" stop-color="#fff" stop-opacity=".098039"/><stop offset="1" stop-color="#fff" stop-opacity=".498039"/></linearGradient><linearGradient id="b" gradientTransform="matrix(.24998771 0 0 .2499878 .132288 -61.811547)" gradientUnits="userSpaceOnUse" x1="13.735326" x2="38.099998" y1="249.69423" y2="292.76666"><stop offset="0" stop-color="#8c59d9"/><stop offset="1" stop-color="#a7a7f1"/></linearGradient><circle cx="-6.349688" cy="-6.481973" opacity=".1" r="6.085117" transform="scale(-1)"/><circle cx="6.349688" cy="6.217399" fill="url(#b)" r="5.952832"/><g fill="#fff"><path d="m3.9540851.77613744a5.952832 5.952832 0 0 0 -.2785211.1245341c-.1307506 1.44288516-.1726877 2.86102866-.0780271 4.21142196-.8684758-.5402312-1.7052218-1.109038-2.5077349-1.6747507a5.952832 5.952832 0 0 0 -.11419916.2366663c.77913046.5488562 1.58073356 1.0999384 2.42505676 1.6277273-1.0353113.3875543-2.0255159.8837062-2.96608188 1.5248965a5.952832 5.952832 0 0 0 .0361721.2971249c.99493778-.6942497 2.04837738-1.2217272 3.15675768-1.624627.061595.6814323.1553213 1.3460461.2945408 1.9842771.1514877.694483.3537543 1.359875.6118189 1.988928-.378661.125622-.7573326.225955-1.123908.301776-.6084667.125853-1.1803698.186417-1.6690656.205145a5.952832 5.952832 0 0 0 .2227153.2537191c.4537116-.02752.9614565-.08816 1.4995739-.199461.3827513-.07917.7788871-.1836271 1.1760997-.3162441.3994827.9058421.925176 1.7287541 1.5936208 2.4472761a5.952832 5.952832 0 0 0 .116784.0057 5.952832 5.952832 0 0 0 .2439021-.0088c-.7250603-.731154-1.2855048-1.584711-1.7062722-2.5351221 1.1128171-.40618 2.2129931-1.04533 3.0327404-2.029234 1.2519864.47032 2.5561304.807254 3.9096454.944598a5.952832 5.952832 0 0 0 .09405-.255785c-2.8563439-.2735-5.5048568-1.4673427-7.912309-2.9200917 1.5074158-.503726 3.1148154-.7906179 4.8154892-.9559669-.2398859.9723216-.5792476 1.9123708-.9973057 2.8100259l.2397668.1116159c.4373374-.9390516.7906949-1.925233 1.0360627-2.9474789.922128-.0822452 1.870885-.1325072 2.845681-.1643228a5.952832 5.952832 0 0 0 -.096632-.2557858c-.914336.0307529-1.814907.0722023-2.6865258.1477874.2093968-.9541117.3208444-1.9392266.3162462-2.9464452a5.952832 5.952832 0 0 0 -.2645703-.162256c.0191813 1.0728819-.0988038 2.1208853-.3276121 3.1345381-1.7716343.1674021-3.4510817.4630025-5.026836.9967893-.1001478-1.3904525-.0531522-2.8601385.0888771-4.35817576zm-.0521891 4.83357556c1.1910056.7178226 2.442357 1.3754648 3.7535913 1.8902309-.7786569.901451-1.8174102 1.498376-2.8735855 1.88248-.2532308-.61602-.4519575-1.269848-.6014847-1.95534-.127515-.5845765-.2175668-1.1925614-.2785211-1.8173709z" fill-rule="evenodd" opacity=".5"/><ellipse cx="3.836294" cy="5.290716" rx=".396855" ry=".397544"/><ellipse cx="4.894591" cy="9.523841" rx=".396855" ry=".397544"/><ellipse cx="9.127667" cy="4.232431" rx=".396855" ry=".397544"/><ellipse cx="7.804824" cy="7.407276" rx=".396855" ry=".397544"/></g><circle cx="6.349688" cy="6.217399" r="5.952832" style="opacity:.4;fill:none;stroke:#000;stroke-width:.26457;stroke-linejoin:round;stroke-dashoffset:6.6"/><path d="m6.3496873.39685524a5.8205469 5.8205442 0 0 0 -5.82054686 5.82054606 5.8205469 5.8205442 0 0 0 5.82054686 5.8205437 5.8205469 5.8205442 0 0 0 5.8205467-5.8205437 5.8205469 5.8205442 0 0 0 -5.8205467-5.82054606zm0 .25307a5.5674796 5.5674772 0 0 1 5.5674797 5.56747606 5.5674796 5.5674772 0 0 1 -5.5674797 5.5674767 5.5674796 5.5674772 0 0 1 -5.56748006-5.5674767 5.5674796 5.5674772 0 0 1 5.56748006-5.56747606z" fill="url(#a)"/></svg>

<?xml version="1.0" encoding="UTF-8" standalone="no"?>
<svg
   xmlns:dc="http://purl.org/dc/elements/1.1/"
   xmlns:cc="http://creativecommons.org/ns#"
   xmlns:rdf="http://www.w3.org/1999/02/22-rdf-syntax-ns#"
   xmlns:svg="http://www.w3.org/2000/svg"
   xmlns="http://www.w3.org/2000/svg"
   xmlns:xlink="http://www.w3.org/1999/xlink"
   xmlns:sodipodi="http://sodipodi.sourceforge.net/DTD/sodipodi-0.dtd"
   xmlns:inkscape="http://www.inkscape.org/namespaces/inkscape"
   height="48"
   viewBox="0 0 12.699375 12.699375"
   width="48"
   version="1.1"
   id="svg41"
   sodipodi:docname="network-workgroup.svg"
   inkscape:version="0.92.4 (5da689c313, 2019-01-14)">
  <metadata
     id="metadata47">
    <rdf:RDF>
      <cc:Work
         rdf:about="">
        <dc:format>image/svg+xml</dc:format>
        <dc:type
           rdf:resource="http://purl.org/dc/dcmitype/StillImage" />
      </cc:Work>
    </rdf:RDF>
  </metadata>
  <defs
     id="defs45">
    <linearGradient
       inkscape:collect="always"
       xlink:href="#linearGradient927"
       id="linearGradient8590"
       gradientUnits="userSpaceOnUse"
       gradientTransform="matrix(0.06326681,0,0,0.06326678,0.27607365,0.14378794)"
       x1="96"
       y1="4.0000062"
       x2="96"
       y2="188" />
    <linearGradient
       inkscape:collect="always"
       id="linearGradient927">
      <stop
         style="stop-color:#ffffff;stop-opacity:1;"
         offset="0"
         id="stop923" />
      <stop
         id="stop933"
         offset="0.125"
         style="stop-color:#ffffff;stop-opacity:0.09803922" />
      <stop
         id="stop931"
         offset="0.92500001"
         style="stop-color:#ffffff;stop-opacity:0.09803922" />
      <stop
         style="stop-color:#ffffff;stop-opacity:0.49803922"
         offset="1"
         id="stop925" />
    </linearGradient>
    <linearGradient
       inkscape:collect="always"
       xlink:href="#linearGradient4195"
       id="linearGradient8588"
       gradientUnits="userSpaceOnUse"
       gradientTransform="matrix(0.24998771,0,0,0.2499878,0.13228762,-61.811547)"
       x1="13.735326"
       y1="249.69423"
       x2="38.099998"
       y2="292.76666" />
    <linearGradient
       inkscape:collect="always"
       id="linearGradient4195">
      <stop
         style="stop-color:#8c59d9;stop-opacity:1"
         offset="0"
         id="stop4197" />
      <stop
         style="stop-color:#a7a7f1;stop-opacity:1"
         offset="1"
         id="stop4199" />
    </linearGradient>
  </defs>
  <sodipodi:namedview
     pagecolor="#ffffff"
     bordercolor="#666666"
     borderopacity="1"
     objecttolerance="10"
     gridtolerance="10"
     guidetolerance="10"
     inkscape:pageopacity="0"
     inkscape:pageshadow="2"
     inkscape:window-width="796"
     inkscape:window-height="480"
     id="namedview43"
     showgrid="false"
     inkscape:zoom="4.9166667"
     inkscape:cx="24"
     inkscape:cy="24"
     inkscape:window-x="0"
     inkscape:window-y="27"
     inkscape:window-maximized="0"
     inkscape:current-layer="svg41" />
  <linearGradient
     id="a"
     gradientTransform="matrix(.06326681 0 0 .06326678 .276074 .143789)"
     gradientUnits="userSpaceOnUse"
     x1="96"
     x2="96"
     y1="4.000006"
     y2="188">
    <stop
       offset="0"
       stop-color="#fff"
       id="stop2" />
    <stop
       offset=".125"
       stop-color="#fff"
       stop-opacity=".098039"
       id="stop4" />
    <stop
       offset=".92500001"
       stop-color="#fff"
       stop-opacity=".098039"
       id="stop6" />
    <stop
       offset="1"
       stop-color="#fff"
       stop-opacity=".498039"
       id="stop8" />
  </linearGradient>
  <clipPath
     id="b">
    <path
       d="m351.93164 62.5c13.62162 0 15.56836 1.94187 15.56836 15.55078v11.89844c0 13.60886-1.94674 15.55078-15.56836 15.55078h-15.86328c-13.62162 0-15.56836-1.94192-15.56836-15.55078v-11.89844c0-13.60891 1.94674-15.55078 15.56836-15.55078z"
       id="path11" />
  </clipPath>
  <linearGradient
     id="c"
     gradientTransform="matrix(.24998771 0 0 .2499878 .132288 -61.811547)"
     gradientUnits="userSpaceOnUse"
     x1="13.735326"
     x2="38.099998"
     y1="249.69423"
     y2="292.76666">
    <stop
       offset="0"
       stop-color="#8c59d9"
       id="stop14" />
    <stop
       offset="1"
       stop-color="#a7a7f1"
       id="stop16" />
  </linearGradient>
  <circle
     style="display:inline;opacity:0.1;fill:#000000;fill-opacity:1;stroke:none;stroke-width:0.51707011;stroke-linecap:round;stroke-linejoin:round;stroke-miterlimit:4;stroke-dasharray:none;stroke-opacity:1;enable-background:new"
     id="path9498-0-0"
     cx="-6.3496876"
     cy="-6.4819727"
     transform="scale(-1)"
     r="6.0851173" />
  <circle
     style="display:inline;opacity:1;fill:url(#linearGradient8588);fill-opacity:1;stroke:none;stroke-width:0.49458873;stroke-linecap:round;stroke-linejoin:round;stroke-miterlimit:4;stroke-dasharray:none;stroke-opacity:1;enable-background:new"
     id="path9498-6"
     cx="6.3496876"
     cy="6.2173986"
     r="5.9528322" />
  <path
     style="color:#000000;font-style:normal;font-variant:normal;font-weight:normal;font-stretch:normal;font-size:medium;line-height:normal;font-family:sans-serif;font-variant-ligatures:normal;font-variant-position:normal;font-variant-caps:normal;font-variant-numeric:normal;font-variant-alternates:normal;font-feature-settings:normal;text-indent:0;text-align:start;text-decoration:none;text-decoration-line:none;text-decoration-style:solid;text-decoration-color:#000000;letter-spacing:normal;word-spacing:normal;text-transform:none;writing-mode:lr-tb;direction:ltr;text-orientation:mixed;dominant-baseline:auto;baseline-shift:baseline;text-anchor:start;white-space:normal;shape-padding:0;clip-rule:nonzero;display:inline;overflow:visible;visibility:visible;opacity:0.5;isolation:auto;mix-blend-mode:normal;color-interpolation:sRGB;color-interpolation-filters:linearRGB;solid-color:#000000;solid-opacity:1;vector-effect:none;fill:#ffffff;fill-opacity:1;fill-rule:evenodd;stroke:none;stroke-width:0.26457033;stroke-linecap:butt;stroke-linejoin:miter;stroke-miterlimit:4;stroke-dasharray:none;stroke-dashoffset:0;stroke-opacity:1;color-rendering:auto;image-rendering:auto;shape-rendering:auto;text-rendering:auto;enable-background:accumulate"
     d="M 3.9540851,0.77613744 A 5.952832,5.952832 0 0 0 3.675564,0.90067154 C 3.5448134,2.3435567 3.5028763,3.7617002 3.5975369,5.1120935 2.7290611,4.5718623 1.8923151,4.0030555 1.089802,3.4373428 A 5.952832,5.952832 0 0 0 0.97560284,3.6740091 C 1.7547333,4.2228653 2.5563364,4.7739475 3.4006596,5.3017364 2.3653483,5.6892907 1.3751437,6.1854426 0.43457772,6.8266329 a 5.952832,5.952832 0 0 0 0.0361721,0.2971249 C 1.4656876,6.4295081 2.5191272,5.9020306 3.6275075,5.4991308 c 0.061595,0.6814323 0.1553213,1.3460461 0.2945408,1.9842771 0.1514877,0.694483 0.3537543,1.359875 0.6118189,1.988928 -0.378661,0.125622 -0.7573326,0.225955 -1.123908,0.301776 -0.6084667,0.125853 -1.1803698,0.186417 -1.6690656,0.205145 a 5.952832,5.952832 0 0 0 0.2227153,0.2537191 c 0.4537116,-0.02752 0.9614565,-0.08816 1.4995739,-0.199461 0.3827513,-0.07917 0.7788871,-0.1836271 1.1760997,-0.3162441 0.3994827,0.9058421 0.925176,1.7287541 1.5936208,2.4472761 a 5.952832,5.952832 0 0 0 0.116784,0.0057 5.952832,5.952832 0 0 0 0.2439021,-0.0088 C 5.8685291,11.430293 5.3080846,10.576736 4.8873172,9.6263249 c 1.1128171,-0.40618 2.2129931,-1.04533 3.0327404,-2.029234 1.2519864,0.47032 2.5561304,0.807254 3.9096454,0.944598 a 5.952832,5.952832 0 0 0 0.09405,-0.255785 C 9.0674091,8.0124039 6.4188962,6.8185612 4.011444,5.3658122 5.5188598,4.8620862 7.1262594,4.5751943 8.8269332,4.4098453 8.5870473,5.3821669 8.2476856,6.3222161 7.8296275,7.2198712 L 8.0693943,7.3314871 C 8.5067317,6.3924355 8.8600892,5.4062541 9.105457,4.3840082 10.027585,4.301763 10.976342,4.251501 11.951138,4.2196854 A 5.952832,5.952832 0 0 0 11.854506,3.9638996 C 10.94017,3.9946525 10.039599,4.0361019 9.1679802,4.111687 9.377377,3.1575753 9.4888246,2.1724604 9.4842264,1.1652418 A 5.952832,5.952832 0 0 0 9.2196561,1.0029858 C 9.2388374,2.0758677 9.1208523,3.1238711 8.892044,4.1375239 7.1204097,4.304926 5.4409623,4.6005264 3.865208,5.1343132 3.7650602,3.7438607 3.8120558,2.2741747 3.9540851,0.77613744 Z M 3.901896,5.609713 C 5.0929016,6.3275356 6.344253,6.9851778 7.6554873,7.4999439 6.8768304,8.4013949 5.8380771,8.9983199 4.7819018,9.3824239 4.528671,8.7664039 4.3299443,8.1125759 4.1804171,7.4270839 4.0529021,6.8425074 3.9628503,6.2345225 3.901896,5.609713 Z"
     id="path1236"
     inkscape:connector-curvature="0" />
  <ellipse
     style="display:inline;opacity:1;fill:#ffffff;fill-opacity:1;stroke:none;stroke-width:0.3968555;stroke-linecap:square;stroke-linejoin:round;stroke-miterlimit:4;stroke-dasharray:none;stroke-dashoffset:0;stroke-opacity:1;enable-background:new"
     id="circle1246"
     cx="3.8362937"
     cy="5.2907157"
     rx="0.39685547"
     ry="0.39754391" />
  <ellipse
     cy="9.5238409"
     cx="4.8945909"
     id="circle1248"
     style="display:inline;opacity:1;fill:#ffffff;fill-opacity:1;stroke:none;stroke-width:0.39685547;stroke-linecap:square;stroke-linejoin:round;stroke-miterlimit:4;stroke-dasharray:none;stroke-dashoffset:0;stroke-opacity:1;enable-background:new"
     rx="0.39685547"
     ry="0.39754391" />
  <ellipse
     cy="4.2324305"
     cx="9.1276674"
     id="circle1250"
     style="display:inline;opacity:1;fill:#ffffff;fill-opacity:1;stroke:none;stroke-width:0.39685547;stroke-linecap:square;stroke-linejoin:round;stroke-miterlimit:4;stroke-dasharray:none;stroke-dashoffset:0;stroke-opacity:1;enable-background:new"
     rx="0.39685547"
     ry="0.39754391" />
  <ellipse
     style="display:inline;opacity:1;fill:#ffffff;fill-opacity:1;stroke:none;stroke-width:0.39685547;stroke-linecap:square;stroke-linejoin:round;stroke-miterlimit:4;stroke-dasharray:none;stroke-dashoffset:0;stroke-opacity:1;enable-background:new"
     id="circle1252"
     cx="7.8048244"
     cy="7.4072762"
     rx="0.39685547"
     ry="0.39754391" />
  <circle
     style="display:inline;opacity:0.4;vector-effect:none;fill:none;fill-opacity:1;stroke:#000000;stroke-width:0.26457033;stroke-linecap:butt;stroke-linejoin:round;stroke-miterlimit:4;stroke-dasharray:none;stroke-dashoffset:6.5999999;stroke-opacity:1;enable-background:new"
     id="path1389-3"
     cx="6.3496876"
     cy="6.2173986"
     r="5.9528322" />
  <path
     style="display:inline;opacity:1;fill:url(#linearGradient8590);fill-opacity:1;stroke:none;stroke-width:0.4945887;stroke-linecap:round;stroke-linejoin:round;stroke-miterlimit:4;stroke-dasharray:none;stroke-opacity:1;enable-background:new"
     d="M 6.3496873,0.39685524 A 5.8205469,5.8205442 0 0 0 0.52914044,6.2174013 5.8205469,5.8205442 0 0 0 6.3496873,12.037945 5.8205469,5.8205442 0 0 0 12.170234,6.2174013 5.8205469,5.8205442 0 0 0 6.3496873,0.39685524 Z m 0,0.25307 A 5.5674796,5.5674772 0 0 1 11.917167,6.2174013 5.5674796,5.5674772 0 0 1 6.3496873,11.784878 5.5674796,5.5674772 0 0 1 0.78220724,6.2174013 5.5674796,5.5674772 0 0 1 6.3496873,0.64992524 Z"
     id="path9498-1-6"
     inkscape:connector-curvature="0" />
</svg>
